X: 30964
T: Oyster Girl, The
R: jig
M: 6/8
K: Gmajor
"G" ded B2 G|"D" A2 F D2 F|"G" G2 A dcB|"D7" B3 A2 c|
"G" ded B2 G|"C" f2 e c2 e|"G" edB "D7" dcA|"G" G3 G2:|
"Em" B2 B B2 B|"Em" B2 e B2 _B|"A7" A2 A AB^c|"D7" d3- d2 d|
"G" ded B2 G|"C" g2 e cde|"G" edB "D" dcA|"G" G3 G2:|

